!!!OTL: No_8_Kasewat,_Matted_Hair_or_Wig_Song.krn
!!!LING_GROUP: Keresan
!!!LANG: Tone
!!!REG: Southwest
!!!SOCIAL_FUNCTION: miscellaneous songs
**kern
*staff1
=1-
*clefF4
*k[b-e-]
*M2/4
4r
8r
8G\
=2
8F\L
8F\J
8F\L
8G\J
=3
8F\L
8F\J
8F\L
8F\J
=4
*M3/4
8c\L
8c\J
8d\L
8d\J
8c\L
8B-\J
=5
*M7/8
8G\L
8G\
8G\
8G\
8F\
8G\
8G\J
=6
*M2/4
8c\L
8c\J
8B-\L
8G\J
=7
*M3/4
8G\L
8G\J
8G\L
8G\J
4r
=8
*M2/4
8G\L
8B-\J
8G\L
8B-\J
=9
8G\L
8G\J
4F;\
=10
8F\L
8F\J
8F\L
8F\J
=11
8G\L
8F\J
8F\L
8F\J
=12
*M5/8
8F\L
8F\
8F\J
8r
8F\
=13
*M3/4
8c\L
8c\J
8d\L
8d\J
8c\L
8B-\J
=14
*M7/8
8G\L
8G\
8G\
8G\
8F\
8G\
8G\J
=15
*M2/4
8c\L
8c\J
8B-\L
8F\J
=16
8G\L
8G\J
8G\
8r
=17
*M3/4
8F\L
8G\J
16c\LK
8c\
16B-\Jk
8F\L
8G\J
=18
8F\L
8G\J
16c\LK
8c\
16B-\Jk
8F\L
8G\J
=19
*M2/4
8F\L
8G\J
8F\L
8G\J
=20
*M3/4
32F\LLK
16.F\J
8G\J
32F\LLK
16.F\J
8G\J
8F\L
8G\J
=21
8F\L
8F\J
8F\L
8F\J
8F\L
8F\J
=22
8F\L
8F\J
8F\L
8F\J
8F\
8r
=23
*M2/4
4f\
4f\
=24
*M3/4
8f\L
8f\J
8c\L
16c\L
16G\JJ
8G\L
8B-\J
=25
*M2/4
8.B-\L
16B-\Jk
4G\
=26
4G\
4G\
=27
*M3/4
8B-\L
8d\J
8d\L
8d\J
16d\LL
16B-\J
8B-\J
=28
*M2/4
8F\L
8G\J
16B-\LL
16F\J
8F\J
=29
*M3/4
16F\LK
8.F\J
8F\L
8F\J
8.r
16d\
=30
*M2/4
24d\LL
24B-\J
12B-\
12d\J
24d\LL
24B-\J
12B-\
12G\J
=31
4B-\
16c\LK
8.B-\J
=32
8.G\L
16F\Jk
8.G\L
16A\Jk
=33
*M3/4
8G\L
8G\J
8G\L
8G\J
16F\LL
16F\JJ
8r
=34
8F\L
8F\J
8G\L
16.F\L
32F\JJk
4F\
=35
*M2/4
8G\L
8F\J
8G\L
16.F\L
32F\JJk
=36
8F\L
8F\J
8F\
8r
==
*-
